yre/img/svg/icons/brand-2.svg

<svg width="62" height="62" viewBox="0 0 62 62" fill="none" xmlns="http://www.w3.org/2000/svg">
<path d="M55.9453 46.7422C56.6137 46.7422 57.1562 46.1996 57.1562 45.5312C57.1562 44.8629 56.6137 44.3203 55.9453 44.3203C55.2769 44.3203 54.7344 44.8629 54.7344 45.5312C54.7344 46.1996 55.2769 46.7422 55.9453 46.7422Z" fill="black"/>
<path d="M55.9453 46.7422C56.6137 46.7422 57.1562 46.1996 57.1562 45.5312C57.1562 44.8629 56.6137 44.3203 55.9453 44.3203C55.2769 44.3203 54.7344 44.8629 54.7344 45.5312C54.7344 46.1996 55.2769 46.7422 55.9453 46.7422Z" fill="url(#paint0_linear)"/>
<path d="M3.63281 62H58.3672C60.3704 62 62 60.3704 62 58.3672V13.3203C62 12.6515 61.4579 12.1094 60.7891 12.1094H52.3125C52.3125 5.43219 46.8803 0 40.2031 0C33.5117 0 28.0938 5.4128 28.0938 12.1094H18.8906C18.2218 12.1094 17.6797 12.6515 17.6797 13.3203V27.3672H1.21094C0.542084 27.3672 0 27.9093 0 28.5781V58.3672C0 60.3704 1.62956 62 3.63281 62ZM2.42188 58.3672V54.0078H30.5156V58.3672C30.5156 59.0351 29.9726 59.5781 29.3047 59.5781H3.63281C2.9649 59.5781 2.42188 59.0351 2.42188 58.3672ZM58.3672 59.5781H32.7294C32.8637 59.1992 32.9375 58.792 32.9375 58.3672V54.0078H59.5781V58.3672C59.5781 59.0351 59.0351 59.5781 58.3672 59.5781ZM40.2031 2.42188C45.545 2.42188 49.8906 6.76753 49.8906 12.1094H30.5156C30.5156 6.75571 34.8461 2.42188 40.2031 2.42188ZM20.1016 14.5312H28.0938V20.1016H26.8828C26.214 20.1016 25.6719 20.6436 25.6719 21.3125C25.6719 21.9814 26.214 22.5234 26.8828 22.5234H31.7266C32.3954 22.5234 32.9375 21.9814 32.9375 21.3125C32.9375 20.6436 32.3954 20.1016 31.7266 20.1016H30.5156V14.5312H49.8906V20.1016H48.6797C48.0108 20.1016 47.4688 20.6436 47.4688 21.3125C47.4688 21.9814 48.0108 22.5234 48.6797 22.5234H53.5234C54.1923 22.5234 54.7344 21.9814 54.7344 21.3125C54.7344 20.6436 54.1923 20.1016 53.5234 20.1016H52.3125V14.5312H59.5781V51.5859H32.9375V28.5781C32.9375 27.9093 32.3954 27.3672 31.7266 27.3672H20.1016V14.5312ZM30.5156 29.7891V51.5859H2.42188V29.7891H30.5156Z" fill="black"/>
<path d="M3.63281 62H58.3672C60.3704 62 62 60.3704 62 58.3672V13.3203C62 12.6515 61.4579 12.1094 60.7891 12.1094H52.3125C52.3125 5.43219 46.8803 0 40.2031 0C33.5117 0 28.0938 5.4128 28.0938 12.1094H18.8906C18.2218 12.1094 17.6797 12.6515 17.6797 13.3203V27.3672H1.21094C0.542084 27.3672 0 27.9093 0 28.5781V58.3672C0 60.3704 1.62956 62 3.63281 62ZM2.42188 58.3672V54.0078H30.5156V58.3672C30.5156 59.0351 29.9726 59.5781 29.3047 59.5781H3.63281C2.9649 59.5781 2.42188 59.0351 2.42188 58.3672ZM58.3672 59.5781H32.7294C32.8637 59.1992 32.9375 58.792 32.9375 58.3672V54.0078H59.5781V58.3672C59.5781 59.0351 59.0351 59.5781 58.3672 59.5781ZM40.2031 2.42188C45.545 2.42188 49.8906 6.76753 49.8906 12.1094H30.5156C30.5156 6.75571 34.8461 2.42188 40.2031 2.42188ZM20.1016 14.5312H28.0938V20.1016H26.8828C26.214 20.1016 25.6719 20.6436 25.6719 21.3125C25.6719 21.9814 26.214 22.5234 26.8828 22.5234H31.7266C32.3954 22.5234 32.9375 21.9814 32.9375 21.3125C32.9375 20.6436 32.3954 20.1016 31.7266 20.1016H30.5156V14.5312H49.8906V20.1016H48.6797C48.0108 20.1016 47.4688 20.6436 47.4688 21.3125C47.4688 21.9814 48.0108 22.5234 48.6797 22.5234H53.5234C54.1923 22.5234 54.7344 21.9814 54.7344 21.3125C54.7344 20.6436 54.1923 20.1016 53.5234 20.1016H52.3125V14.5312H59.5781V51.5859H32.9375V28.5781C32.9375 27.9093 32.3954 27.3672 31.7266 27.3672H20.1016V14.5312ZM30.5156 29.7891V51.5859H2.42188V29.7891H30.5156Z" fill="url(#paint1_linear)"/>
<path d="M9.20312 37.0547V39.4766C9.20312 43.4906 12.4547 46.7422 16.4688 46.7422C20.4753 46.7422 23.7344 43.4831 23.7344 39.4766V37.0547C24.4032 37.0547 24.9453 36.5126 24.9453 35.8438C24.9453 35.1749 24.4032 34.6328 23.7344 34.6328H21.3125C20.6436 34.6328 20.1016 35.1749 20.1016 35.8438C20.1016 36.5126 20.6436 37.0547 21.3125 37.0547V39.4766C21.3125 42.1472 19.1394 44.3203 16.4688 44.3203C13.7933 44.3203 11.625 42.152 11.625 39.4766V37.0547C12.2939 37.0547 12.8359 36.5126 12.8359 35.8438C12.8359 35.1749 12.2939 34.6328 11.625 34.6328H9.20312C8.53427 34.6328 7.99219 35.1749 7.99219 35.8438C7.99219 36.5126 8.53427 37.0547 9.20312 37.0547Z" fill="black"/>
<path d="M9.20312 37.0547V39.4766C9.20312 43.4906 12.4547 46.7422 16.4688 46.7422C20.4753 46.7422 23.7344 43.4831 23.7344 39.4766V37.0547C24.4032 37.0547 24.9453 36.5126 24.9453 35.8438C24.9453 35.1749 24.4032 34.6328 23.7344 34.6328H21.3125C20.6436 34.6328 20.1016 35.1749 20.1016 35.8438C20.1016 36.5126 20.6436 37.0547 21.3125 37.0547V39.4766C21.3125 42.1472 19.1394 44.3203 16.4688 44.3203C13.7933 44.3203 11.625 42.152 11.625 39.4766V37.0547C12.2939 37.0547 12.8359 36.5126 12.8359 35.8438C12.8359 35.1749 12.2939 34.6328 11.625 34.6328H9.20312C8.53427 34.6328 7.99219 35.1749 7.99219 35.8438C7.99219 36.5126 8.53427 37.0547 9.20312 37.0547Z" fill="url(#paint2_linear)"/>
<path d="M55.9453 41.8984C56.6142 41.8984 57.1562 41.3564 57.1562 40.6875V31C57.1562 30.3311 56.6142 29.7891 55.9453 29.7891C55.2765 29.7891 54.7344 30.3311 54.7344 31V40.6875C54.7344 41.3564 55.2765 41.8984 55.9453 41.8984Z" fill="black"/>
<path d="M55.9453 41.8984C56.6142 41.8984 57.1562 41.3564 57.1562 40.6875V31C57.1562 30.3311 56.6142 29.7891 55.9453 29.7891C55.2765 29.7891 54.7344 30.3311 54.7344 31V40.6875C54.7344 41.3564 55.2765 41.8984 55.9453 41.8984Z" fill="url(#paint3_linear)"/>
<defs>
<linearGradient id="paint0_linear" x1="55.9453" y1="44.3203" x2="55.9453" y2="46.7422" gradientUnits="userSpaceOnUse">
<stop stop-color="#EC407A"/>
<stop offset="1" stop-color="#C40135"/>
</linearGradient>
<linearGradient id="paint1_linear" x1="31" y1="0" x2="31" y2="62" gradientUnits="userSpaceOnUse">
<stop stop-color="#EC407A"/>
<stop offset="1" stop-color="#C40135"/>
</linearGradient>
<linearGradient id="paint2_linear" x1="16.4688" y1="34.6328" x2="16.4688" y2="46.7422" gradientUnits="userSpaceOnUse">
<stop stop-color="#EC407A"/>
<stop offset="1" stop-color="#C40135"/>
</linearGradient>
<linearGradient id="paint3_linear" x1="55.9453" y1="29.7891" x2="55.9453" y2="41.8984" gradientUnits="userSpaceOnUse">
<stop stop-color="#EC407A"/>
<stop offset="1" stop-color="#C40135"/>
</linearGradient>
</defs>
</svg>

<svg width="62" height="62" fill="none" xmlns="http://www.w3.org/2000/svg"><path d="M55.945 46.742a1.211 1.211 0 100-2.423 1.211 1.211 0 000 2.423z" fill="#000"/><path d="M55.945 46.742a1.211 1.211 0 100-2.423 1.211 1.211 0 000 2.423z" fill="url(#paint0_linear)"/><path d="M3.633 62h54.734A3.637 3.637 0 0062 58.367V13.32a1.21 1.21 0 00-1.21-1.21h-8.477C52.313 5.431 46.88 0 40.203 0c-6.691 0-12.11 5.413-12.11 12.11h-9.202a1.21 1.21 0 00-1.211 1.21v14.047H1.21A1.21 1.21 0 000 28.578v29.79A3.637 3.637 0 003.633 62zm-1.211-3.633v-4.36h28.094v4.36c0 .668-.543 1.211-1.211 1.211H3.633a1.212 1.212 0 01-1.211-1.21zm55.945 1.211H32.73c.135-.379.209-.786.209-1.21v-4.36h26.64v4.36c0 .667-.543 1.21-1.21 1.21zM40.203 2.422c5.342 0 9.688 4.346 9.688 9.687H30.516a9.681 9.681 0 019.687-9.687zm-20.101 12.11h7.992v5.57h-1.211a1.21 1.21 0 100 2.421h4.844a1.21 1.21 0 100-2.421h-1.211v-5.57H49.89v5.57h-1.21a1.21 1.21 0 100 2.421h4.843a1.21 1.21 0 100-2.421h-1.21v-5.57h7.265v37.054h-26.64V28.578a1.21 1.21 0 00-1.211-1.21H20.102V14.53zm10.414 15.257v21.797H2.422V29.789h28.094z" fill="#000"/><path d="M3.633 62h54.734A3.637 3.637 0 0062 58.367V13.32a1.21 1.21 0 00-1.21-1.21h-8.477C52.313 5.431 46.88 0 40.203 0c-6.691 0-12.11 5.413-12.11 12.11h-9.202a1.21 1.21 0 00-1.211 1.21v14.047H1.21A1.21 1.21 0 000 28.578v29.79A3.637 3.637 0 003.633 62zm-1.211-3.633v-4.36h28.094v4.36c0 .668-.543 1.211-1.211 1.211H3.633a1.212 1.212 0 01-1.211-1.21zm55.945 1.211H32.73c.135-.379.209-.786.209-1.21v-4.36h26.64v4.36c0 .667-.543 1.21-1.21 1.21zM40.203 2.422c5.342 0 9.688 4.346 9.688 9.687H30.516a9.681 9.681 0 019.687-9.687zm-20.101 12.11h7.992v5.57h-1.211a1.21 1.21 0 100 2.421h4.844a1.21 1.21 0 100-2.421h-1.211v-5.57H49.89v5.57h-1.21a1.21 1.21 0 100 2.421h4.843a1.21 1.21 0 100-2.421h-1.21v-5.57h7.265v37.054h-26.64V28.578a1.21 1.21 0 00-1.211-1.21H20.102V14.53zm10.414 15.257v21.797H2.422V29.789h28.094z" fill="url(#paint1_linear)"/><path d="M9.203 37.055v2.422a7.264 7.264 0 007.266 7.265c4.006 0 7.265-3.259 7.265-7.265v-2.422a1.21 1.21 0 100-2.422h-2.422a1.21 1.21 0 100 2.422v2.422a4.843 4.843 0 11-9.688 0v-2.422a1.21 1.21 0 10.001-2.422H9.203a1.21 1.21 0 100 2.422z" fill="#000"/><path d="M9.203 37.055v2.422a7.264 7.264 0 007.266 7.265c4.006 0 7.265-3.259 7.265-7.265v-2.422a1.21 1.21 0 100-2.422h-2.422a1.21 1.21 0 100 2.422v2.422a4.843 4.843 0 11-9.688 0v-2.422a1.21 1.21 0 10.001-2.422H9.203a1.21 1.21 0 100 2.422z" fill="url(#paint2_linear)"/><path d="M55.945 41.898a1.21 1.21 0 001.211-1.21V31a1.21 1.21 0 10-2.422 0v9.688c0 .668.542 1.21 1.211 1.21z" fill="#000"/><path d="M55.945 41.898a1.21 1.21 0 001.211-1.21V31a1.21 1.21 0 10-2.422 0v9.688c0 .668.542 1.21 1.211 1.21z" fill="url(#paint3_linear)"/><defs><linearGradient id="paint0_linear" x1="55.945" y1="44.32" x2="55.945" y2="46.742" gradientUnits="userSpaceOnUse"><stop stop-color="#EC407A"/><stop offset="1" stop-color="#C40135"/></linearGradient><linearGradient id="paint1_linear" x1="31" y1="0" x2="31" y2="62" gradientUnits="userSpaceOnUse"><stop stop-color="#EC407A"/><stop offset="1" stop-color="#C40135"/></linearGradient><linearGradient id="paint2_linear" x1="16.469" y1="34.633" x2="16.469" y2="46.742" gradientUnits="userSpaceOnUse"><stop stop-color="#EC407A"/><stop offset="1" stop-color="#C40135"/></linearGradient><linearGradient id="paint3_linear" x1="55.945" y1="29.789" x2="55.945" y2="41.898" gradientUnits="userSpaceOnUse"><stop stop-color="#EC407A"/><stop offset="1" stop-color="#C40135"/></linearGradient></defs></svg>
